dist/svgs/icons/sm/baggage-personal-item.svg

<svg width="24" height="24" viewBox="0 0 24 24" fill="none" xmlns="http://www.w3.org/2000/svg">
<path d="M12 3C12.5137 3 13.0153 3.05165 13.5 3.15003V3C13.5 2.17157 12.8284 1.5 12 1.5C11.1716 1.5 10.5 2.17157 10.5 3V3.15003C10.9847 3.05165 11.4863 3 12 3ZM4.5 10.5C4.5 7.42452 6.35114 4.7814 9 3.62407V3C9 1.34315 10.3431 0 12 0C13.6569 0 15 1.34315 15 3V3.62407C17.6489 4.7814 19.5 7.42452 19.5 10.5V13.5H21C21.8284 13.5 22.5 14.1716 22.5 15V19.5C22.5 20.3284 21.8284 21 21 21H19.0987C18.5799 21.8967 17.6104 22.5 16.5 22.5H7.5C6.38958 22.5 5.42006 21.8967 4.90135 21H3C2.17157 21 1.5 20.3284 1.5 19.5V15C1.5 14.1716 2.17157 13.5 3 13.5H4.5V10.5ZM7.5 15.75C7.5 16.1642 7.83579 16.5 8.25 16.5H9.75L10.875 18.4486C11.0821 18.8073 11.5408 18.9302 11.8995 18.7231C12.2582 18.516 12.3811 18.0573 12.174 17.6986L11.4821 16.5H15.75C16.1642 16.5 16.5 16.1642 16.5 15.75C16.5 15.3358 16.1642 15 15.75 15H8.25C7.83579 15 7.5 15.3358 7.5 15.75Z" fill="#161616"/>
</svg>

<svg xmlns="http://www.w3.org/2000/svg" viewBox="0 0 24 24"><path d="M12 3q.772.002 1.5.15V3a1.5 1.5 0 0 0-3 0v.15q.728-.149 1.5-.15m-7.5 7.5A7.5 7.5 0 0 1 9 3.624V3a3 3 0 1 1 6 0v.624a7.5 7.5 0 0 1 4.5 6.876v3H21a1.5 1.5 0 0 1 1.5 1.5v4.5A1.5 1.5 0 0 1 21 21h-1.901a3 3 0 0 1-2.599 1.5h-9A3 3 0 0 1 4.901 21H3a1.5 1.5 0 0 1-1.5-1.5V15A1.5 1.5 0 0 1 3 13.5h1.5zm3 5.25c0 .414.336.75.75.75h1.5l1.125 1.949a.75.75 0 0 0 1.299-.75l-.692-1.199h4.268a.75.75 0 0 0 0-1.5h-7.5a.75.75 0 0 0-.75.75"/></svg>
